; generated by Slic3r 1.2.9 on 2015-09-04 at 23:38:45

; external perimeters extrusion width = 0.40mm
; perimeters extrusion width = 0.35mm
; infill extrusion width = 0.40mm
; solid infill extrusion width = 0.40mm
; top infill extrusion width = 0.35mm
; support material extrusion width = 0.40mm

M107
M190 S60 ; set bed temperature
M104 S210 ; set temperature


M109 S210 ; wait for temperature to be reached
G21 ; set units to millimeters
G90 ; use absolute coordinates
M82 ; use absolute distances for extrusion
G92 E0
G1 Z0.230 F10200.000
G1 X81.068 Y100.852 F10200.000
M204 S5000
G1 X83.232 Y100.026 E0.07764 F1800.000
G1 X84.523 Y99.902 E0.12113
G1 X93.711 Y99.904 E0.42921
G1 X118.015 Y100.583 E1.24444 F1800.000
G1 X119.604 Y100.818 E1.29828
G1 X130.604 Y103.818 E1.68057
G1 X132.701 Y104.801 E1.75822
G1 X134.342 Y106.435 E1.83586
G1 X135.334 Y108.527 E1.91351
G1 X135.570 Y109.968 E1.96247
G1 X136.221 Y121.980 E2.36580
G1 X136.230 Y127.345 E2.54569
G1 X135.833 Y129.626 E2.62333
G1 X134.689 Y131.640 E2.70098
G1 X132.932 Y133.148 E2.77862
G1 X130.768 Y133.974 E2.85627
G1 X129.477 Y134.098 E2.89976
G1 X114.429 Y134.098 E3.40431
G1 X91.629 Y133.936 E4.16881
G1 X89.350 Y133.523 E4.24645
G1 X88.202 Y132.974 E4.28912
G1 X83.202 Y129.974 E4.48463
G1 X81.450 Y128.460 E4.56227
G1 X80.021 Y125.327 E4.67771
G1 X77.867 Y112.799 E5.10393
G1 X77.770 Y111.655 E5.14244
G1 X77.770 Y106.655 E5.31009
G1 X78.167 Y104.374 E5.38773
G1 X79.311 Y102.360 E5.46538
G1 X81.028 Y100.886 E5.54126
M204 S4000
G1 X81.266 Y101.176 F10200.000
M204 S5000
G1 X81.403 Y101.064 E5.54721 F1800.000
G1 X84.523 Y100.252 E5.65529
G1 X93.701 Y100.255 E5.96305
G1 X118.006 Y100.933 E6.77827 F1800.000
G1 X119.512 Y101.156 E6.82932
G1 X130.512 Y104.156 E7.21161
G1 X132.548 Y105.123 E7.28720
G1 X134.123 Y106.736 E7.36279
G1 X135.042 Y108.794 E7.43837
G1 X135.220 Y109.987 E7.47881
G1 X135.870 Y121.999 E7.88215
G1 X135.880 Y127.345 E8.06139
G1 X135.483 Y129.564 E8.13698
G1 X134.341 Y131.508 E8.21257
G1 X132.597 Y132.936 E8.28815
G1 X129.477 Y133.748 E8.39624
G1 X114.432 Y133.747 E8.90070
G1 X91.631 Y133.586 E9.66521
G1 X89.415 Y133.173 E9.74079
G1 X88.383 Y132.673 E9.77925
G1 X83.383 Y129.673 E9.97476
G1 X81.684 Y128.191 E10.05034
G1 X80.367 Y125.268 E10.15785
G1 X78.213 Y112.740 E10.58407
G1 X78.120 Y111.655 E10.62058
G1 X78.120 Y106.655 E10.78823
G1 X78.517 Y104.436 E10.86382
G1 X79.659 Y102.492 E10.93940
G1 X81.225 Y101.210 E11.00728
M204 S4000
G1 X81.453 Y101.503 F10200.000
M204 S5000
G1 X81.736 Y101.283 E11.01930 F1800.000
G1 X84.523 Y100.603 E11.11548
G1 X93.692 Y100.605 E11.42290
G1 X117.996 Y101.284 E12.23813 F1800.000
G1 X119.419 Y101.495 E12.28638
G1 X130.419 Y104.495 E12.66867
G1 X132.394 Y105.444 E12.74214
G1 X133.901 Y107.035 E12.81561
G1 X134.870 Y110.006 E12.92040
G1 X135.520 Y122.018 E13.32374
G1 X135.529 Y127.345 E13.50235
G1 X135.132 Y129.500 E13.57582
G1 X133.994 Y131.373 E13.64929
G1 X132.264 Y132.717 E13.72276
G1 X129.477 Y133.397 E13.81895
G1 X114.434 Y133.397 E14.32333
G1 X91.634 Y133.235 E15.08783
G1 X88.563 Y132.373 E15.19477
G1 X83.563 Y129.373 E15.39028
G1 X81.919 Y127.924 E15.46375
G1 X80.712 Y125.209 E15.56337
G1 X78.558 Y112.680 E15.98960
G1 X78.471 Y111.655 E16.02411
G1 X78.471 Y106.655 E16.19176
G1 X78.868 Y104.500 E16.26523
G1 X80.006 Y102.627 E16.33870
G1 X81.412 Y101.535 E16.39839
M204 S4000
G1 X81.629 Y101.831 F10200.000
M204 S5000
G1 X82.067 Y101.510 E16.41661 F1800.000
G1 X84.523 Y100.954 E16.50104
G1 X93.682 Y100.956 E16.80814
G1 X117.986 Y101.634 E17.62336 F1800.000
G1 X119.327 Y101.833 E17.66882
G1 X130.327 Y104.833 E18.05111
G1 X132.238 Y105.765 E18.12240
G1 X133.675 Y107.333 E18.19370
G1 X134.520 Y110.025 E18.28832
G1 X135.170 Y122.037 E18.69166
G1 X135.178 Y127.345 E18.86963
G1 X134.782 Y129.434 E18.94093
G1 X133.648 Y131.232 E19.01222
G1 X131.933 Y132.490 E19.08351
G1 X129.477 Y133.046 E19.16795
G1 X114.437 Y133.046 E19.67225
G1 X91.636 Y132.884 E20.43675
G1 X88.744 Y132.072 E20.53749
G1 X83.744 Y129.072 E20.73300
G1 X82.156 Y127.657 E20.80429
G1 X81.058 Y125.149 E20.89609
G1 X78.904 Y112.621 E21.32232
G1 X78.822 Y111.655 E21.35483
G1 X78.822 Y106.655 E21.52248
G1 X79.218 Y104.566 E21.59377
G1 X80.352 Y102.768 E21.66506
G1 X81.586 Y101.862 E21.71638
M204 S4000
G1 X81.792 Y102.161 F10200.000
M204 S5000
G1 X82.395 Y101.746 E21.74093 F1800.000
G1 X84.523 Y101.304 E21.81379
G1 X93.672 Y101.306 E22.12056
G1 X117.976 Y101.985 E22.93579 F1800.000
G1 X119.235 Y102.171 E22.97845
G1 X130.235 Y105.171 E23.36074
G1 X132.080 Y106.085 E23.42979
G1 X133.444 Y107.628 E23.49883
G1 X134.170 Y110.044 E23.58341
G1 X134.820 Y122.056 E23.98675
G1 X134.828 Y127.345 E24.16409
G1 X134.432 Y129.366 E24.23314
G1 X133.302 Y131.087 E24.30218
G1 X131.605 Y132.254 E24.37123
G1 X129.477 Y132.696 E24.44409
G1 X114.439 Y132.696 E24.94830
G1 X91.639 Y132.534 E25.71280
G1 X88.924 Y131.771 E25.80735
G1 X83.924 Y128.771 E26.00286
G1 X82.395 Y127.392 E26.07191
G1 X81.404 Y125.090 E26.15594
G1 X79.250 Y112.562 E26.58217
G1 X79.172 Y111.655 E26.61268
G1 X79.172 Y106.655 E26.78033
G1 X79.568 Y104.634 E26.84937
G1 X80.699 Y102.913 E26.91842
G1 X81.749 Y102.190 E26.96115
M204 S4000
G1 X82.517 Y102.958 F10200.000
M204 S5000
G1 X82.853 Y102.623 E26.97708 F1800.000
G1 X95.193 Y102.623 E27.39085
G1 X97.555 Y104.985 E27.50286
G1 X97.555 Y105.417 E27.51736 F1800.000
G1 X97.761 Y105.623 E27.52710
G1 X104.760 Y105.623 E27.76177
G1 X104.888 Y105.569 E27.76645
G1 X107.157 Y103.301 E27.87401
G1 X119.497 Y103.301 E28.28778
G1 X121.859 Y105.663 E28.39978
G1 X121.859 Y106.095 E28.41428
G1 X122.065 Y106.301 E28.42402
G1 X130.497 Y106.301 E28.70676
G1 X132.859 Y108.663 E28.81876
G1 X132.859 Y117.004 E29.09842
G1 X131.494 Y118.369 E29.16316
G1 X131.494 Y118.659 E29.17290
G1 X133.510 Y120.675 E29.26847
G1 X133.510 Y129.015 E29.54812
G1 X131.147 Y131.377 E29.66012
G1 X112.807 Y131.377 E30.27507
G1 X110.641 Y129.212 E30.37776
G1 X110.351 Y129.212 E30.38750
G1 X108.347 Y131.216 E30.48251
G1 X90.007 Y131.216 E31.09746
G1 X87.644 Y128.853 E31.20946
G1 X87.644 Y128.421 E31.22396
G1 X87.439 Y128.216 E31.23370
G1 X85.007 Y128.216 E31.31526
G1 X82.644 Y125.853 E31.42727
G1 X82.644 Y117.513 E31.70692
G1 X84.037 Y116.120 E31.77296
G1 X83.858 Y115.687 E31.78867
G1 X82.853 Y115.687 E31.82238
G1 X80.490 Y113.325 E31.93438
G1 X80.490 Y104.985 E32.21404
G1 X82.480 Y102.996 E32.30835
M204 S4000
G1 X82.727 Y103.244 F10200.000
M204 S5000
G1 X82.998 Y102.973 E32.32117 F1800.000
G1 X95.048 Y102.973 E32.72520
G1 X97.205 Y105.130 E32.82747 F1800.000
G1 X97.205 Y105.768 E32.84886
G1 X97.410 Y105.973 E32.85860
G1 X104.905 Y105.973 E33.10990
G1 X105.034 Y105.920 E33.11457
G1 X107.302 Y103.652 E33.22213
G1 X119.352 Y103.652 E33.62616
G1 X121.509 Y105.808 E33.72843
G1 X121.509 Y106.446 E33.74982
G1 X121.714 Y106.652 E33.75956
G1 X130.352 Y106.652 E34.04918
G1 X132.509 Y108.808 E34.15144
G1 X132.509 Y116.858 E34.42136
G1 X130.998 Y118.369 E34.49298
G1 X130.998 Y118.659 E34.50272
G1 X133.159 Y120.820 E34.60518
G1 X133.159 Y128.870 E34.87509
G1 X131.002 Y131.027 E34.97736
G1 X112.952 Y131.027 E35.58257
G1 X110.641 Y128.716 E35.69214
G1 X110.351 Y128.716 E35.70188
G1 X108.202 Y130.865 E35.80378
G1 X90.152 Y130.865 E36.40899
G1 X87.995 Y128.708 E36.51125
G1 X87.995 Y128.070 E36.53264
G1 X87.790 Y127.865 E36.54238
G1 X85.152 Y127.865 E36.63083
G1 X82.995 Y125.708 E36.73309
G1 X82.995 Y117.658 E37.00301
G1 X84.884 Y115.770 E37.09256
G1 X84.704 Y115.337 E37.10827
G1 X82.998 Y115.337 E37.16549
G1 X80.841 Y113.180 E37.26776
G1 X80.841 Y105.130 E37.53767
G1 X82.690 Y103.281 E37.62536
M204 S4000
G1 X82.938 Y103.529 F10200.000
M204 S5000
G1 X83.143 Y103.324 E37.63506 F1800.000
G1 X94.903 Y103.324 E38.02936
G1 X96.854 Y105.275 E38.12188
G1 X96.854 Y106.118 E38.15016 F1800.000
G1 X97.059 Y106.324 E38.15990
G1 X105.291 Y106.324 E38.43589
G1 X105.496 Y106.118 E38.44563
G1 X105.496 Y105.953 E38.45116
G1 X107.447 Y104.002 E38.54369
G1 X119.207 Y104.002 E38.93798
G1 X121.158 Y105.953 E39.03050
G1 X121.158 Y106.797 E39.05878
G1 X121.364 Y107.002 E39.06852
G1 X130.207 Y107.002 E39.36503
G1 X132.158 Y108.953 E39.45755
G1 X132.158 Y116.713 E39.71773
G1 X130.290 Y118.581 E39.80630
G1 X130.469 Y119.014 E39.82201
G1 X130.857 Y119.014 E39.83501
G1 X132.808 Y120.965 E39.92754
G1 X132.808 Y128.725 E40.18771
G1 X130.857 Y130.676 E40.28024
G1 X113.097 Y130.676 E40.87570
G1 X111.146 Y128.725 E40.96823
G1 X111.146 Y127.882 E40.99650
G1 X110.941 Y127.676 E41.00624
G1 X110.213 Y127.676 E41.03063
G1 X110.008 Y127.882 E41.04037
G1 X110.008 Y128.563 E41.06322
G1 X108.057 Y130.514 E41.15575
G1 X90.297 Y130.514 E41.75121
G1 X88.346 Y128.563 E41.84374
G1 X88.346 Y127.720 E41.87201
G1 X88.140 Y127.514 E41.88175
G1 X85.297 Y127.514 E41.97709
G1 X83.346 Y125.563 E42.06961
G1 X83.346 Y117.803 E42.32979
G1 X85.297 Y115.852 E42.42231
G1 X85.986 Y115.852 E42.44542
G1 X86.192 Y115.647 E42.45516
G1 X86.192 Y115.191 E42.47043
G1 X85.986 Y114.986 E42.48017
G1 X83.143 Y114.986 E42.57550
G1 X81.192 Y113.035 E42.66803
G1 X81.192 Y105.275 E42.92820
G1 X82.901 Y103.566 E43.00926
M204 S4000
G1 X83.149 Y103.814 F10200.000
M204 S5000
G1 X83.288 Y103.675 E43.01586 F1800.000
G1 X94.757 Y103.675 E43.40041
G1 X96.503 Y105.420 E43.48319 F1800.000
G1 X96.503 Y106.469 E43.51836
G1 X96.709 Y106.675 E43.52810
G1 X105.641 Y106.675 E43.82760
G1 X105.847 Y106.469 E43.83734
G1 X105.847 Y106.099 E43.84976
G1 X107.593 Y104.353 E43.93255
G1 X119.062 Y104.353 E44.31710
G1 X120.808 Y106.099 E44.39988
G1 X120.808 Y107.147 E44.43505
G1 X121.013 Y107.353 E44.44479
G1 X130.062 Y107.353 E44.74818
G1 X131.808 Y109.099 E44.83097
G1 X131.808 Y116.568 E45.08140
G1 X130.062 Y118.314 E45.16419
G1 X121.663 Y118.314 E45.44579
G1 X121.458 Y118.519 E45.45553
G1 X121.458 Y119.159 E45.47699
G1 X121.663 Y119.365 E45.48673
G1 X130.712 Y119.365 E45.79013
G1 X132.458 Y121.111 E45.87291
G1 X132.458 Y128.580 E46.12335
G1 X130.712 Y130.325 E46.20613
G1 X113.243 Y130.325 E46.79186
G1 X111.497 Y128.580 E46.87465
G1 X111.497 Y127.531 E46.90981
G1 X111.291 Y127.325 E46.91955
G1 X109.863 Y127.325 E46.96745
G1 X109.657 Y127.531 E46.97719
G1 X109.657 Y128.418 E47.00693
G1 X107.911 Y130.164 E47.08971
G1 X90.442 Y130.164 E47.67544
G1 X88.696 Y128.418 E47.75823
G1 X88.696 Y127.369 E47.79339
G1 X88.491 Y127.164 E47.80313
G1 X85.442 Y127.164 E47.90535
G1 X83.696 Y125.418 E47.98814
G1 X83.696 Y117.949 E48.23857
G1 X85.442 Y116.203 E48.32136
G1 X86.337 Y116.203 E48.35135
G1 X86.542 Y115.997 E48.36109
G1 X86.542 Y114.841 E48.39987
G1 X86.337 Y114.635 E48.40961
G1 X83.288 Y114.635 E48.51183
G1 X81.542 Y112.889 E48.59462
G1 X81.542 Y105.420 E48.84505
G1 X83.112 Y103.851 E48.91948
M204 S4000
G1 X83.360 Y104.099 F10200.000
M204 S5000
G1 X83.433 Y104.025 E48.92297 F1800.000
G1 X94.612 Y104.025 E49.29778
G1 X96.153 Y105.566 E49.37083
G1 X96.153 Y106.820 E49.41288 F1800.000
G1 X96.358 Y107.025 E49.42262
G1 X105.612 Y107.025 E49.73290
G1 X105.764 Y107.177 E49.74012
G1 X106.197 Y106.998 E49.75583
G1 X106.197 Y106.244 E49.78112
G1 X107.738 Y104.703 E49.85416
G1 X118.916 Y104.703 E50.22898
G1 X120.457 Y106.244 E50.30202
G1 X120.457 Y107.498 E50.34407
G1 X120.662 Y107.703 E50.35381
G1 X129.916 Y107.703 E50.66409
G1 X131.457 Y109.244 E50.73714
G1 X131.457 Y116.423 E50.97784
G1 X129.916 Y117.963 E51.05088
G1 X121.312 Y117.963 E51.33937
G1 X121.107 Y118.168 E51.34911
G1 X121.107 Y119.510 E51.39408
G1 X121.312 Y119.715 E51.40382
G1 X130.567 Y119.715 E51.71411
G1 X132.107 Y121.256 E51.78715
G1 X132.107 Y128.434 E52.02785
G1 X130.567 Y129.975 E52.10090
G1 X113.388 Y129.975 E52.67688
G1 X111.847 Y128.434 E52.74993
G1 X111.847 Y127.180 E52.79198
G1 X111.642 Y126.975 E52.80172
G1 X109.512 Y126.975 E52.87314
G1 X109.307 Y127.180 E52.88288
G1 X109.307 Y128.272 E52.91950
G1 X107.766 Y129.813 E52.99254
G1 X90.588 Y129.813 E53.56853
G1 X89.047 Y128.272 E53.64158
G1 X89.047 Y127.018 E53.68363
G1 X88.842 Y126.813 E53.69337
G1 X85.588 Y126.813 E53.80247
G1 X84.047 Y125.272 E53.87552
G1 X84.047 Y118.094 E54.11622
G1 X85.588 Y116.553 E54.18926
G1 X87.090 Y116.553 E54.23964
G1 X87.269 Y116.120 E54.25535
G1 X86.893 Y115.744 E54.27318
G1 X86.893 Y114.490 E54.31523
G1 X86.688 Y114.285 E54.32497
G1 X83.433 Y114.285 E54.43408
G1 X81.893 Y112.744 E54.50713
G1 X81.893 Y105.566 E54.74782
G1 X83.323 Y104.136 E54.81562
M204 S4000
G1 X83.571 Y104.384 F10200.000
M204 S5000
G1 X94.467 Y104.376 E55.18096 F1800.000
G1 X95.802 Y105.711 E55.24427 F1800.000
G1 X95.802 Y107.170 E55.29320
G1 X96.007 Y107.376 E55.30294
G1 X105.467 Y107.376 E55.62011
G1 X106.115 Y108.024 E55.65085
G1 X106.548 Y107.845 E55.66656
G1 X106.548 Y106.389 E55.71536
G1 X107.883 Y105.054 E55.77867
G1 X118.771 Y105.054 E56.14374
G1 X120.106 Y106.389 E56.20705
G1 X120.106 Y107.849 E56.25598
G1 X120.312 Y108.054 E56.26572
G1 X129.771 Y108.054 E56.58289
G1 X131.106 Y109.389 E56.64620
G1 X131.106 Y116.277 E56.87715
G1 X129.771 Y117.612 E56.94046
G1 X120.580 Y117.612 E57.24863
G1 X120.401 Y118.045 E57.26434
G1 X120.756 Y118.401 E57.28121
G1 X120.756 Y119.860 E57.33014
G1 X120.962 Y120.066 E57.33988
G1 X130.421 Y120.066 E57.65705
G1 X131.756 Y121.401 E57.72036
G1 X131.756 Y128.289 E57.95132
G1 X130.421 Y129.624 E58.01462
G1 X113.533 Y129.624 E58.58087
G1 X112.198 Y128.289 E58.64418
G1 X112.198 Y126.830 E58.69312
G1 X111.993 Y126.624 E58.70286
G1 X109.161 Y126.624 E58.79779
G1 X108.956 Y126.830 E58.80753
G1 X108.956 Y128.127 E58.85103
G1 X107.621 Y129.462 E58.91434
G1 X90.733 Y129.462 E59.48059
G1 X89.398 Y128.127 E59.54390
G1 X89.398 Y126.668 E59.59283
G1 X89.192 Y126.462 E59.60257
G1 X85.733 Y126.462 E59.71857
G1 X84.398 Y125.127 E59.78187
G1 X84.398 Y118.239 E60.01283
G1 X85.733 Y116.904 E60.07614
G1 X87.936 Y116.904 E60.15002
G1 X88.116 Y116.471 E60.16573
G1 X87.244 Y115.599 E60.20708
G1 X87.244 Y114.140 E60.25602
G1 X87.038 Y113.934 E60.26576
G1 X83.579 Y113.934 E60.38176
G1 X82.244 Y112.599 E60.44506
G1 X82.244 Y105.711 E60.67602
G1 X83.534 Y104.421 E60.73718
M204 S4000
G1 X83.724 Y104.726 F10200.000
M204 S5000
G1 X94.322 Y104.726 E61.09252 F1800.000
G1 X95.451 Y105.856 E61.14608
G1 X95.451 Y107.521 E61.20191 F1800.000
G1 X95.657 Y107.726 E61.21165
G1 X105.322 Y107.726 E61.53571
G1 X106.466 Y108.870 E61.58995
G1 X106.899 Y108.691 E61.60566
G1 X106.899 Y106.534 E61.67798
G1 X108.028 Y105.405 E61.73154
G1 X118.626 Y105.405 E62.08688
G1 X119.756 Y106.534 E62.14044
G1 X119.756 Y108.199 E62.19627
G1 X119.961 Y108.405 E62.20601
G1 X129.626 Y108.405 E62.53006
G1 X130.756 Y109.534 E62.58363
G1 X130.756 Y116.132 E62.80485
G1 X129.626 Y117.262 E62.85842
G1 X119.734 Y117.262 E63.19010
G1 X119.554 Y117.695 E63.20581
G1 X120.406 Y118.546 E63.24619
G1 X120.406 Y120.211 E63.30201
G1 X120.611 Y120.417 E63.31175
G1 X130.276 Y120.417 E63.63581
G1 X131.406 Y121.546 E63.68938
G1 X131.406 Y128.144 E63.91059
G1 X130.276 Y129.274 E63.96416
G1 X113.678 Y129.274 E64.52067
G1 X112.549 Y128.144 E64.57424
G1 X112.549 Y126.479 E64.63006
G1 X112.343 Y126.274 E64.63980
G1 X108.811 Y126.274 E64.75824
G1 X108.605 Y126.479 E64.76798
G1 X108.605 Y127.982 E64.81838
G1 X107.476 Y129.112 E64.87195
G1 X90.878 Y129.112 E65.42845
G1 X89.748 Y127.982 E65.48202
G1 X89.748 Y126.317 E65.53785
G1 X89.543 Y126.112 E65.54758
G1 X85.878 Y126.112 E65.67047
G1 X84.748 Y124.982 E65.72403
G1 X84.748 Y118.384 E65.94525
G1 X85.878 Y117.255 E65.99882
G1 X88.783 Y117.255 E66.09622
G1 X88.962 Y116.822 E66.11193
G1 X87.594 Y115.454 E66.17679
G1 X87.594 Y113.789 E66.23262
G1 X87.389 Y113.583 E66.24236
G1 X83.724 Y113.583 E66.36524
G1 X82.594 Y112.454 E66.41880
G1 X82.594 Y105.856 E66.64002
G1 X83.687 Y104.764 E66.69183
M204 S4000
G92 E0
G1 X107.249 Y106.680 F10200.000
M204 S5000
G1 X108.173 Y105.755 E0.04383 F1800.000
G1 X118.481 Y105.755 E0.38942
G1 X119.405 Y106.680 E0.43325 F1800.000
G1 X119.405 Y108.550 E0.49596
G1 X119.610 Y108.755 E0.50570
G1 X129.481 Y108.755 E0.83664
G1 X130.405 Y109.680 E0.88047
G1 X130.405 Y115.987 E1.09195
G1 X129.481 Y116.911 E1.13578
G1 X113.173 Y116.911 E1.68254
G1 X112.249 Y115.987 E1.72637
G1 X112.249 Y114.117 E1.78908
G1 X112.044 Y113.911 E1.79882
G1 X108.173 Y113.911 E1.92859
G1 X107.249 Y112.987 E1.97242
